src/assets/divider.svg

<svg width="710" height="19" fill="none" xmlns="http://www.w3.org/2000/svg"><path stroke="#707070" d="M0 9.5h291m128 0h291"/><path d="M303.18 14.24c-1.03 0-1.965-.25-2.805-.75a5.42 5.42 0 01-1.98-2.025 5.718 5.718 0 01-.72-2.835c0-1.02.24-1.96.72-2.82a5.388 5.388 0 014.785-2.79 5.388 5.388 0 014.785 2.79c.49.86.735 1.8.735 2.82 0 1.03-.24 1.975-.72 2.835a5.385 5.385 0 01-1.995 2.025c-.84.5-1.775.75-2.805.75zm0-1.215a4.15 4.15 0 002.115-.555c.65-.38 1.16-.9 1.53-1.56.38-.67.57-1.43.57-2.28 0-.85-.19-1.605-.57-2.265-.37-.67-.88-1.19-1.53-1.56a4.066 4.066 0 00-2.115-.57c-.77 0-1.475.19-2.115.57-.64.37-1.15.89-1.53 1.56-.38.67-.57 1.425-.57 2.265 0 .84.19 1.595.57 2.265.38.67.89 1.195 1.53 1.575a4.15 4.15 0 002.115.555zm7.143-6.675h1.215v1.23h.06c.15-.42.44-.765.87-1.035.43-.28.88-.42 1.35-.42.35 0 .65.05.9.15v1.38c-.32-.16-.68-.24-1.08-.24-.37 0-.71.105-1.02.315-.31.21-.56.495-.75.855-.18.35-.27.73-.27 1.14V14h-1.275V6.35zm14.113 7.89c-1.04 0-1.985-.245-2.835-.735a5.386 5.386 0 01-2.01-2.01c-.48-.86-.72-1.815-.72-2.865 0-1.05.24-2 .72-2.85a5.354 5.354 0 012.01-2.025c.85-.49 1.795-.735 2.835-.735.8 0 1.53.155 2.19.465.67.3 1.25.73 1.74 1.29l-.915.885c-.41-.49-.86-.85-1.35-1.08-.48-.23-1.035-.345-1.665-.345a4.26 4.26 0 00-2.145.555 4.06 4.06 0 00-1.56 1.545c-.38.66-.57 1.425-.57 2.295 0 .87.19 1.64.57 2.31.39.66.91 1.175 1.56 1.545.65.36 1.365.54 2.145.54 1.3 0 2.405-.535 3.315-1.605l.93.9c-.5.59-1.115 1.06-1.845 1.41-.73.34-1.53.51-2.4.51zm9.055 0c-.75 0-1.425-.18-2.025-.54-.6-.36-1.07-.85-1.41-1.47a4.305 4.305 0 01-.495-2.055c0-.75.165-1.435.495-2.055.34-.62.81-1.11 1.41-1.47.6-.36 1.275-.54 2.025-.54s1.425.18 2.025.54c.6.36 1.065.85 1.395 1.47.34.62.51 1.305.51 2.055 0 .75-.17 1.435-.51 2.055-.33.62-.795 1.11-1.395 1.47-.6.36-1.275.54-2.025.54zm0-1.155c.47 0 .905-.115 1.305-.345.41-.24.735-.58.975-1.02.25-.44.375-.955.375-1.545s-.125-1.105-.375-1.545a2.486 2.486 0 00-.975-1.005 2.49 2.49 0 00-1.305-.36c-.47 0-.91.12-1.32.36-.41.23-.74.565-.99 1.005-.24.44-.36.955-.36 1.545s.12 1.105.36 1.545c.25.44.58.78.99 1.02.41.23.85.345 1.32.345zm5.265-6.735h1.215v1.125h.06c.21-.38.545-.7 1.005-.96.46-.27.95-.405 1.47-.405.92 0 1.62.27 2.1.81.49.53.735 1.255.735 2.175V14h-1.275V9.29c0-.71-.17-1.225-.51-1.545-.34-.32-.805-.48-1.395-.48-.41 0-.78.115-1.11.345-.32.23-.57.535-.75.915-.18.37-.27.76-.27 1.17V14h-1.275V6.35zm10.967 7.77c-.31 0-.6-.05-.87-.15-.26-.1-.48-.235-.66-.405-.2-.19-.35-.41-.45-.66-.1-.25-.15-.555-.15-.915V7.505h-1.335V6.35h1.335V4.19h1.275v2.16h1.86v1.155h-1.86v4.17c0 .42.08.73.24.93.19.22.465.33.825.33.29 0 .57-.085.84-.255v1.245c-.15.07-.305.12-.465.15-.15.03-.345.045-.585.045zm3.376-9.18a.88.88 0 01-.645-.27.88.88 0 01-.27-.645c0-.25.09-.46.27-.63a.88.88 0 01.645-.27c.25 0 .465.09.645.27.18.17.27.38.27.63a.88.88 0 01-.27.645.85.85 0 01-.645.27zm-.63 1.41h1.26V14h-1.26V6.35zm3.264 0h1.215v1.125h.06c.21-.38.545-.7 1.005-.96.46-.27.95-.405 1.47-.405.92 0 1.62.27 2.1.81.49.53.735 1.255.735 2.175V14h-1.275V9.29c0-.71-.17-1.225-.51-1.545-.34-.32-.805-.48-1.395-.48-.41 0-.78.115-1.11.345-.32.23-.57.535-.75.915-.18.37-.27.76-.27 1.17V14h-1.275V6.35zm11.183 7.89c-.92 0-1.625-.27-2.115-.81-.48-.54-.72-1.295-.72-2.265V6.35h1.275v4.62c0 .73.165 1.265.495 1.605.33.34.775.51 1.335.51.43 0 .81-.115 1.14-.345.34-.23.6-.53.78-.9.19-.37.285-.76.285-1.17V6.35h1.275V14h-1.215v-1.11h-.06c-.21.38-.545.7-1.005.96-.46.26-.95.39-1.47.39zm8.965 0c-.73 0-1.385-.175-1.965-.525a3.71 3.71 0 01-1.365-1.44c-.32-.62-.48-1.315-.48-2.085 0-.74.15-1.42.45-2.04.31-.62.745-1.115 1.305-1.485.56-.37 1.21-.555 1.95-.555.75 0 1.4.17 1.95.51.55.33.97.79 1.26 1.38.3.59.45 1.265.45 2.025 0 .15-.015.28-.045.39h-6.045c.03.58.17 1.07.42 1.47.25.4.565.7.945.9.39.2.795.3 1.215.3.98 0 1.735-.46 2.265-1.38l1.08.525c-.33.62-.78 1.11-1.35 1.47-.56.36-1.24.54-2.04.54zm2.205-4.875c-.02-.32-.11-.64-.27-.96-.16-.32-.415-.59-.765-.81-.34-.22-.77-.33-1.29-.33-.6 0-1.11.195-1.53.585-.41.38-.68.885-.81 1.515h4.665zm5.489-3.015h1.305l1.83 6.045h.015l1.92-6.045h1.32l1.935 6.03h.015l1.815-6.03h1.29L392.545 14h-1.29l-1.98-6.105L387.31 14h-1.275l-2.46-7.65zm13.25-1.41a.88.88 0 01-.645-.27.88.88 0 01-.27-.645c0-.25.09-.46.27-.63a.88.88 0 01.645-.27c.25 0 .465.09.645.27.18.17.27.38.27.63a.88.88 0 01-.27.645.85.85 0 01-.645.27zm-.63 1.41h1.26V14h-1.26V6.35zm6.13 7.77c-.31 0-.6-.05-.87-.15-.26-.1-.48-.235-.66-.405-.2-.19-.35-.41-.45-.66-.1-.25-.15-.555-.15-.915V7.505h-1.335V6.35h1.335V4.19h1.275v2.16h1.86v1.155h-1.86v4.17c0 .42.08.73.24.93.19.22.465.33.825.33.29 0 .57-.085.84-.255v1.245c-.15.07-.305.12-.465.15-.15.03-.345.045-.585.045zm2.627-10.86h1.275v3.165l-.06 1.05h.06c.21-.39.54-.715.99-.975.46-.26.96-.39 1.5-.39.93 0 1.64.275 2.13.825.49.54.735 1.26.735 2.16V14h-1.275V9.29c0-.69-.175-1.2-.525-1.53-.35-.33-.805-.495-1.365-.495-.4 0-.77.12-1.11.36a2.618 2.618 0 00-1.08 2.115V14h-1.275V3.26z" fill="#707070"/></svg>

<svg width="710" height="19" viewBox="0 0 710 19" fill="none" xmlns="http://www.w3.org/2000/svg">
<line y1="9.5" x2="291" y2="9.5" stroke="#707070"/>
<line x1="419" y1="9.5" x2="710" y2="9.5" stroke="#707070"/>
<path d="M303.18 14.24C302.15 14.24 301.215 13.99 300.375 13.49C299.535 12.99 298.875 12.315 298.395 11.465C297.915 10.605 297.675 9.66 297.675 8.63C297.675 7.61 297.915 6.67 298.395 5.81C298.875 4.95 299.535 4.27 300.375 3.77C301.215 3.27 302.15 3.02 303.18 3.02C304.21 3.02 305.145 3.27 305.985 3.77C306.825 4.27 307.485 4.95 307.965 5.81C308.455 6.67 308.7 7.61 308.7 8.63C308.7 9.66 308.46 10.605 307.98 11.465C307.5 12.315 306.835 12.99 305.985 13.49C305.145 13.99 304.21 14.24 303.18 14.24ZM303.18 13.025C303.95 13.025 304.655 12.84 305.295 12.47C305.945 12.09 306.455 11.57 306.825 10.91C307.205 10.24 307.395 9.48 307.395 8.63C307.395 7.78 307.205 7.025 306.825 6.365C306.455 5.695 305.945 5.175 305.295 4.805C304.655 4.425 303.95 4.235 303.18 4.235C302.41 4.235 301.705 4.425 301.065 4.805C300.425 5.175 299.915 5.695 299.535 6.365C299.155 7.035 298.965 7.79 298.965 8.63C298.965 9.47 299.155 10.225 299.535 10.895C299.915 11.565 300.425 12.09 301.065 12.47C301.705 12.84 302.41 13.025 303.18 13.025ZM310.323 6.35H311.538V7.58H311.598C311.748 7.16 312.038 6.815 312.468 6.545C312.898 6.265 313.348 6.125 313.818 6.125C314.168 6.125 314.468 6.175 314.718 6.275V7.655C314.398 7.495 314.038 7.415 313.638 7.415C313.268 7.415 312.928 7.52 312.618 7.73C312.308 7.94 312.058 8.225 311.868 8.585C311.688 8.935 311.598 9.315 311.598 9.725V14H310.323V6.35ZM324.436 14.24C323.396 14.24 322.451 13.995 321.601 13.505C320.751 13.015 320.081 12.345 319.591 11.495C319.111 10.635 318.871 9.68 318.871 8.63C318.871 7.58 319.111 6.63 319.591 5.78C320.081 4.92 320.751 4.245 321.601 3.755C322.451 3.265 323.396 3.02 324.436 3.02C325.236 3.02 325.966 3.175 326.626 3.485C327.296 3.785 327.876 4.215 328.366 4.775L327.451 5.66C327.041 5.17 326.591 4.81 326.101 4.58C325.621 4.35 325.066 4.235 324.436 4.235C323.656 4.235 322.941 4.42 322.291 4.79C321.641 5.15 321.121 5.665 320.731 6.335C320.351 6.995 320.161 7.76 320.161 8.63C320.161 9.5 320.351 10.27 320.731 10.94C321.121 11.6 321.641 12.115 322.291 12.485C322.941 12.845 323.656 13.025 324.436 13.025C325.736 13.025 326.841 12.49 327.751 11.42L328.681 12.32C328.181 12.91 327.566 13.38 326.836 13.73C326.106 14.07 325.306 14.24 324.436 14.24ZM333.491 14.24C332.741 14.24 332.066 14.06 331.466 13.7C330.866 13.34 330.396 12.85 330.056 12.23C329.726 11.61 329.561 10.925 329.561 10.175C329.561 9.425 329.726 8.74 330.056 8.12C330.396 7.5 330.866 7.01 331.466 6.65C332.066 6.29 332.741 6.11 333.491 6.11C334.241 6.11 334.916 6.29 335.516 6.65C336.116 7.01 336.581 7.5 336.911 8.12C337.251 8.74 337.421 9.425 337.421 10.175C337.421 10.925 337.251 11.61 336.911 12.23C336.581 12.85 336.116 13.34 335.516 13.7C334.916 14.06 334.241 14.24 333.491 14.24ZM333.491 13.085C333.961 13.085 334.396 12.97 334.796 12.74C335.206 12.5 335.531 12.16 335.771 11.72C336.021 11.28 336.146 10.765 336.146 10.175C336.146 9.585 336.021 9.07 335.771 8.63C335.531 8.19 335.206 7.855 334.796 7.625C334.396 7.385 333.961 7.265 333.491 7.265C333.021 7.265 332.581 7.385 332.171 7.625C331.761 7.855 331.431 8.19 331.181 8.63C330.941 9.07 330.821 9.585 330.821 10.175C330.821 10.765 330.941 11.28 331.181 11.72C331.431 12.16 331.761 12.5 332.171 12.74C332.581 12.97 333.021 13.085 333.491 13.085ZM338.756 6.35H339.971V7.475H340.031C340.241 7.095 340.576 6.775 341.036 6.515C341.496 6.245 341.986 6.11 342.506 6.11C343.426 6.11 344.126 6.38 344.606 6.92C345.096 7.45 345.341 8.175 345.341 9.095V14H344.066V9.29C344.066 8.58 343.896 8.065 343.556 7.745C343.216 7.425 342.751 7.265 342.161 7.265C341.751 7.265 341.381 7.38 341.051 7.61C340.731 7.84 340.481 8.145 340.301 8.525C340.121 8.895 340.031 9.285 340.031 9.695V14H338.756V6.35ZM349.723 14.12C349.413 14.12 349.123 14.07 348.853 13.97C348.593 13.87 348.373 13.735 348.193 13.565C347.993 13.375 347.843 13.155 347.743 12.905C347.643 12.655 347.593 12.35 347.593 11.99V7.505H346.258V6.35H347.593V4.19H348.868V6.35H350.728V7.505H348.868V11.675C348.868 12.095 348.948 12.405 349.108 12.605C349.298 12.825 349.573 12.935 349.933 12.935C350.223 12.935 350.503 12.85 350.773 12.68V13.925C350.623 13.995 350.468 14.045 350.308 14.075C350.158 14.105 349.963 14.12 349.723 14.12ZM353.099 4.94C352.849 4.94 352.634 4.85 352.454 4.67C352.274 4.49 352.184 4.275 352.184 4.025C352.184 3.775 352.274 3.565 352.454 3.395C352.634 3.215 352.849 3.125 353.099 3.125C353.349 3.125 353.564 3.215 353.744 3.395C353.924 3.565 354.014 3.775 354.014 4.025C354.014 4.275 353.924 4.49 353.744 4.67C353.574 4.85 353.359 4.94 353.099 4.94ZM352.469 6.35H353.729V14H352.469V6.35ZM355.733 6.35H356.948V7.475H357.008C357.218 7.095 357.553 6.775 358.013 6.515C358.473 6.245 358.963 6.11 359.483 6.11C360.403 6.11 361.103 6.38 361.583 6.92C362.073 7.45 362.318 8.175 362.318 9.095V14H361.043V9.29C361.043 8.58 360.873 8.065 360.533 7.745C360.193 7.425 359.728 7.265 359.138 7.265C358.728 7.265 358.358 7.38 358.028 7.61C357.708 7.84 357.458 8.145 357.278 8.525C357.098 8.895 357.008 9.285 357.008 9.695V14H355.733V6.35ZM366.916 14.24C365.996 14.24 365.291 13.97 364.801 13.43C364.321 12.89 364.081 12.135 364.081 11.165V6.35H365.356V10.97C365.356 11.7 365.521 12.235 365.851 12.575C366.181 12.915 366.626 13.085 367.186 13.085C367.616 13.085 367.996 12.97 368.326 12.74C368.666 12.51 368.926 12.21 369.106 11.84C369.296 11.47 369.391 11.08 369.391 10.67V6.35H370.666V14H369.451V12.89H369.391C369.181 13.27 368.846 13.59 368.386 13.85C367.926 14.11 367.436 14.24 366.916 14.24ZM375.881 14.24C375.151 14.24 374.496 14.065 373.916 13.715C373.336 13.365 372.881 12.885 372.551 12.275C372.231 11.655 372.071 10.96 372.071 10.19C372.071 9.45 372.221 8.77 372.521 8.15C372.831 7.53 373.266 7.035 373.826 6.665C374.386 6.295 375.036 6.11 375.776 6.11C376.526 6.11 377.176 6.28 377.726 6.62C378.276 6.95 378.696 7.41 378.986 8C379.286 8.59 379.436 9.265 379.436 10.025C379.436 10.175 379.421 10.305 379.391 10.415H373.346C373.376 10.995 373.516 11.485 373.766 11.885C374.016 12.285 374.331 12.585 374.711 12.785C375.101 12.985 375.506 13.085 375.926 13.085C376.906 13.085 377.661 12.625 378.191 11.705L379.271 12.23C378.941 12.85 378.491 13.34 377.921 13.7C377.361 14.06 376.681 14.24 375.881 14.24ZM378.086 9.365C378.066 9.045 377.976 8.725 377.816 8.405C377.656 8.085 377.401 7.815 377.051 7.595C376.711 7.375 376.281 7.265 375.761 7.265C375.161 7.265 374.651 7.46 374.231 7.85C373.821 8.23 373.551 8.735 373.421 9.365H378.086ZM383.575 6.35H384.88L386.71 12.395H386.725L388.645 6.35H389.965L391.9 12.38H391.915L393.73 6.35H395.02L392.545 14H391.255L389.275 7.895L387.31 14H386.035L383.575 6.35ZM396.825 4.94C396.575 4.94 396.36 4.85 396.18 4.67C396 4.49 395.91 4.275 395.91 4.025C395.91 3.775 396 3.565 396.18 3.395C396.36 3.215 396.575 3.125 396.825 3.125C397.075 3.125 397.29 3.215 397.47 3.395C397.65 3.565 397.74 3.775 397.74 4.025C397.74 4.275 397.65 4.49 397.47 4.67C397.3 4.85 397.085 4.94 396.825 4.94ZM396.195 6.35H397.455V14H396.195V6.35ZM402.325 14.12C402.015 14.12 401.725 14.07 401.455 13.97C401.195 13.87 400.975 13.735 400.795 13.565C400.595 13.375 400.445 13.155 400.345 12.905C400.245 12.655 400.195 12.35 400.195 11.99V7.505H398.86V6.35H400.195V4.19H401.47V6.35H403.33V7.505H401.47V11.675C401.47 12.095 401.55 12.405 401.71 12.605C401.9 12.825 402.175 12.935 402.535 12.935C402.825 12.935 403.105 12.85 403.375 12.68V13.925C403.225 13.995 403.07 14.045 402.91 14.075C402.76 14.105 402.565 14.12 402.325 14.12ZM404.952 3.26H406.227V6.425L406.167 7.475H406.227C406.437 7.085 406.767 6.76 407.217 6.5C407.677 6.24 408.177 6.11 408.717 6.11C409.647 6.11 410.357 6.385 410.847 6.935C411.337 7.475 411.582 8.195 411.582 9.095V14H410.307V9.29C410.307 8.6 410.132 8.09 409.782 7.76C409.432 7.43 408.977 7.265 408.417 7.265C408.017 7.265 407.647 7.385 407.307 7.625C406.977 7.865 406.712 8.175 406.512 8.555C406.322 8.935 406.227 9.33 406.227 9.74V14H404.952V3.26Z" fill="#707070"/>
</svg>
